app/assets/logo-colorkoala.svg

<svg height="32" viewBox="0 0 35 32" width="35" xmlns="http://www.w3.org/2000/svg"><g fill="#fff" fill-rule="evenodd" transform="translate(0 -1)"><path d="m33.541 12.737c.5395321-.853859.7555653-1.8726559.609-2.872-.1700847-.77642059-.6204769-1.46286807-1.265-1.928.7301657-1.27347068.6834039-2.84907333-.121-4.077-1.5620184-2.26364032-4.355723-3.33303708-7.03-2.691-1.2384205.25035134-2.3859933.83122153-3.321 1.681-.7784712.70487557-1.3520172 1.60700122-1.66 2.611-2.3448554-.79454072-4.8861446-.79454072-7.231 0-.3101268-1.00433924-.8816385-1.90819746-1.656-2.619-.9350067-.84977847-2.08257954-1.43064866-3.321-1.681-2.67427696-.64203708-5.46798163.42735968-7.03 2.691-.8044039 1.22792667-.85116572 2.80352932-.121 4.077-.64755063.4634096-1.09981571 1.15089528-1.269 1.929-.15157776.9994967.06482487 2.0200358.609 2.872-.80382434 1.3458226-.95105013 2.9844456-.4 4.452.40858101.9778282 1.1694775 1.7665624 2.132 2.21-.35964922 1.6665902-.37564174 3.3890191-.047 5.062.61150886 2.6910161 2.47991083 4.9237211 5.021 6 3.0676657 1.2813109 6.3780586 1.8775229 9.7 1.747 3.3219414.1305229 6.6323343-.4656891 9.7-1.747 2.5378753-1.0806154 4.4046561-3.3113831 5.021-6 .3286417-1.6729809.3126492-3.3954098-.047-5.062.9585746-.4452198 1.7156351-1.233319 2.122-2.209.5525522-1.4647835.4071335-3.1015721-.395-4.446zm-.844 3.93c-.2438375.5785233-.6659979 1.0640953-1.205 1.386-.5192365-1.8536995-1.2872209-3.6285072-2.283-5.276-.194294-.3152518-.6053584-.4166832-.924-.228-.1522842.0909643-.2619886.2389202-.3047896.4110627s-.0151617.3542471.0767896.5059373c.261.428.5.87.73 1.312.007.02.02.033.027.054s.02.04.033.06c1.607 3.234 2.27 6.735 1.7 9.26-.5328587 2.2842917-2.1291079 4.174352-4.292 5.082-2.8861936 1.1949955-5.9978143 1.7477783-9.119 1.62-3.121409.1310966-6.2337398-.4218123-9.119-1.62-2.16289207-.907648-3.75914132-2.7977083-4.292-5.082-.41885518-2.8108735.0108188-5.6827949 1.234-8.248 0-.007.007-.007.007-.013.01291163-.03456.0286308-.068005.047-.1.35038417-.798973.75119199-1.5748701 1.2-2.323.18801433-.3165172.08635348-.72539-.228-.917-.11454154-.0701001-.24800814-.1029427-.382-.094-.22181714.0134768-.42356634.1329629-.542.321-.99471808 1.6454521-1.76329301 3.4173789-2.285 5.268-.53756587-.3236181-.95926607-.8086608-1.205-1.386-.43977163-1.2158402-.24637339-2.5707523.516-3.615.14206312-.2344643.12619583-.5319761-.04-.75-.46173157-.6240433-.67842707-1.3958209-.609-2.169.17039776-.63140821.61478569-1.15322459 1.211-1.422.17222128-.09942452.2940265-.26740664.335-.462.03335411-.1956782-.02032947-.39616993-.147-.549-.72638954-.8854831-.8068666-2.13569417-.2-3.107.59008189-.90594116 1.46622743-1.58848282 2.489-1.939 1.01125715-.34206041 2.09613652-.40459645 3.14-.181 1.8772883.32612812 3.4182834 1.66756438 4 3.482-1.1263973.52507584-2.1779511 1.19763985-3.127 2l-.02.02c-.06.054-.127.107-.187.161-.02.02-.04.033-.06.054s-.06.054-.094.08-.087.08-.134.121c-.1314948.11890186-.2103322.28519744-.21914777.46225906-.00881556.17706163.0531138.35036572.17214777.48174094.04419642.04583849.09352086.08643887.147.121.007 0 .007.007.013.007l.04.02c.007 0 .013.007.02.007.01226097.00712001.02589584.01155134.04.013.007 0 .013.007.027.007s.027.007.033.013.02.007.027.007.02.007.033.007.02.007.033.007h.156c.01144308.00087062.02289581-.00155874.033-.007.007 0 .02-.007.027-.007s.02-.007.033-.007.013-.007.027-.007.027-.007.04-.013.013-.007.02-.007l.04-.02c.007 0 .007-.007.013-.007.05295895-.02710563.10233848-.06069714.147-.1.074-.067.147-.127.221-.194 2.0133977-1.85566405 4.6336441-2.91464032 7.371-2.979 2.7373559.06435968 5.3576023 1.12333595 7.371 2.979.074.06.147.127.221.194.1162825.10510303.265432.16660069.422.174h.067c.1782255-.00542196.3459292-.08564384.462-.221.119034-.13137522.1809633-.30467931.1721478-.48174094-.0088156-.17706162-.087653-.3433572-.2191478-.46225906-.04-.04-.087-.074-.127-.114s-.067-.06-.1-.087c-.0194243-.01395096-.0375028-.02968598-.054-.047-.067-.054-.127-.114-.194-.167-.007-.007-.013-.007-.02-.013-.9511799-.80243606-2.0047251-1.47498322-3.133-2 .5795622-1.81585346 2.1216043-3.15820111 4-3.482 1.0435887-.22713285 2.1294221-.16454182 3.14.181 1.0246659.35027029 1.9040111 1.03088346 2.5 1.935.5994267.97316985.51925 2.21871438-.2 3.107-.1266705.15283007-.1803541.3533218-.147.549.035876.19681276.1590849.36673074.335.462.5964383.26719981 1.0413628.78811381 1.212 1.419.0718471.775576-.1450016 1.5503918-.609 2.176-.1692888.2168767-.1852605.5163473-.04.75.7532238 1.0531142.9401901 2.4093678.5 3.627z"/><g fill-rule="nonzero"><path d="m23.887 15.04c-1.3642385.0011029-2.4698971 1.1067615-2.471 2.471-.0094844.2453609.1160066.4762538.3270554.6017542.2110487.1255004.4738405.1255004.6848892 0 .2110488-.1255004.3365398-.3563933.3270554-.6017542.0181904-.6118163.5194133-1.0983585 1.1315-1.0983585s1.1133096.4865422 1.1315 1.0983585c-.0094844.2453609.1160066.4762538.3270554.6017542.2110487.1255004.4738405.1255004.6848892 0 .2110488-.1255004.3365398-.3563933.3270554-.6017542-.001102-1.3638486-1.106152-2.469346-2.47-2.471zm-12.262 2.457c-.0129894.2442904.1081985.476241.3161469.6050975.2079484.1288564.4695965.1341324.6825704.0137635.2129739-.1203688.3434136-.3472455.3402827-.591861.016945-1.358276-1.0656708-2.4755394-2.4238067-2.5013772-1.35813595-.0258378-2.48246372 1.0494396-2.5171933 2.4073772v.094c.00708924.3647812.30515046.6566142.67.656h.013c.36919012-.0087415.66214846-.3137576.656-.683v-.047c.02587666-.6152613.53883304-1.0969752 1.1545055-1.0841883.6156724.0127868 1.1081857.5153832 1.1084945 1.1311883z"/><path d="m22.36 23.516c-.2562634.1019055-.5204916.1825118-.79.241h-.013c-1.3649234.3063829-2.7875818-.1646324-3.7-1.225v-.02c1.1806989-.0670636 2.1330589-.9908869 2.236-2.169.1000695-.7916453.0933427-1.5931458-.02-2.383-.0896614-.9430723-.4447078-1.8414367-1.024-2.591-.4871395-.5705885-1.1997493-.8991889-1.95-.8991889s-1.4628605.3286004-1.95.8991889c-.5824737.7511785-.9377972 1.6533671-1.024 2.6-.1155239.7895519-.1246049 1.5910333-.027 2.383.0671295.7171479.4563496 1.3649896 1.058 1.761.4112023.2450473.8744147.3896299 1.352.422-.9342257 1.0808597-2.3957425 1.546397-3.783 1.205-.017407-.0056758-.0357211-.0080499-.054-.007-.2250644-.0580668-.4464588-.1295274-.663-.214-.3421404-.1380712-.7314288.0273596-.8695.3695s.0273596.7314288.3695.8695c.161.067.328.121.482.174.1934778.5718225.4907864 1.1030456.877 1.567 1.1174903 1.1512846 2.6535559 1.8009875 4.258 1.8009875s3.1405097-.6497029 4.258-1.8009875c.3785712-.4517758.6713823-.9689399.864-1.526.194-.06.4-.127.6-.208.3418448-.1386432.5065957-.5281359.368-.87-.0596218-.1663449-.1847828-.3010051-.3463298-.3726148s-.3453766-.0739173-.5086702-.0063852z"/></g></g></svg>

<?xml version="1.0" encoding="UTF-8"?>
<svg width="35px" height="32px" viewBox="0 0 35 32" version="1.1" xmlns="http://www.w3.org/2000/svg" xmlns:xlink="http://www.w3.org/1999/xlink">
    <!-- Generator: Sketch 63.1 (92452) - https://sketch.com -->
    <title>logo-colorkoala</title>
    <desc>Created with Sketch.</desc>
    <g id="Page-1" stroke="none" stroke-width="1" fill="none" fill-rule="evenodd">
        <g id="logo-colorkoala" transform="translate(0.000000, -1.000000)" fill="#FFFFFF">
            <g id="Group">
                <path d="M33.541,12.737 C34.0805321,11.883141 34.2965653,10.8643441 34.15,9.865 C33.9799153,9.08857941 33.5295231,8.40213193 32.885,7.937 C33.6151657,6.66352932 33.5684039,5.08792667 32.764,3.86 C31.2019816,1.59635968 28.408277,0.526962918 25.734,1.169 C24.4955795,1.41935134 23.3480067,2.00022153 22.413,2.85 C21.6345288,3.55487557 21.0609828,4.45700122 20.753,5.461 C18.4081446,4.66645928 15.8668554,4.66645928 13.522,5.461 C13.2118732,4.45666076 12.6403615,3.55280254 11.866,2.842 C10.9309933,1.99222153 9.78342046,1.41135134 8.545,1.161 C5.87072304,0.518962918 3.07701837,1.58835968 1.515,3.852 C0.710596095,5.07992667 0.66383428,6.65552932 1.394,7.929 C0.746449365,8.3924096 0.294184287,9.07989528 0.125,9.858 C-0.0265777555,10.8574967 0.189824865,11.8780358 0.734,12.73 C-0.0698243429,14.0758226 -0.217050134,15.7144456 0.334,17.182 C0.742581009,18.1598282 1.5034775,18.9485624 2.466,19.392 C2.10635078,21.0585902 2.09035826,22.7810191 2.419,24.454 C3.03050886,27.1450161 4.89891083,29.3777211 7.44,30.454 C10.5076657,31.7353109 13.8180586,32.3315229 17.14,32.201 C20.4619414,32.3315229 23.7723343,31.7353109 26.84,30.454 C29.3778753,29.3733846 31.2446561,27.1426169 31.861,24.454 C32.1896417,22.7810191 32.1736492,21.0585902 31.814,19.392 C32.7725746,18.9467802 33.5296351,18.158681 33.936,17.183 C34.4885522,15.7182165 34.3431335,14.0814279 33.541,12.737 L33.541,12.737 Z M32.697,16.667 C32.4531625,17.2455233 32.0310021,17.7310953 31.492,18.053 C30.9727635,16.1993005 30.2047791,14.4244928 29.209,12.777 C29.014706,12.4617482 28.6036416,12.3603168 28.285,12.549 C28.1327158,12.6399643 28.0230114,12.7879202 27.9802104,12.9600627 C27.9374094,13.1322052 27.9650487,13.3143098 28.057,13.466 C28.318,13.894 28.557,14.336 28.787,14.778 C28.794,14.798 28.807,14.811 28.814,14.832 C28.821,14.853 28.834,14.872 28.847,14.892 C30.454,18.126 31.117,21.627 30.547,24.152 C30.0141413,26.4362917 28.4178921,28.326352 26.255,29.234 C23.3688064,30.4289955 20.2571857,30.9817783 17.136,30.854 C14.014591,30.9850966 10.9022602,30.4321877 8.017,29.234 C5.85410793,28.326352 4.25785868,26.4362917 3.725,24.152 C3.30614482,21.3411265 3.7358188,18.4692051 4.959,15.904 C4.959,15.897 4.966,15.897 4.966,15.891 C4.97891163,15.85644 4.9946308,15.822995 5.013,15.791 C5.36338417,14.992027 5.76419199,14.2161299 6.213,13.468 C6.40101433,13.1514828 6.29935348,12.74261 5.985,12.551 C5.87045846,12.4808999 5.73699186,12.4480573 5.603,12.457 C5.38118286,12.4704768 5.17943366,12.5899629 5.061,12.778 C4.06628192,14.4234521 3.29770699,16.1953789 2.776,18.046 C2.23843413,17.7223819 1.81673393,17.2373392 1.571,16.66 C1.13122837,15.4441598 1.32462661,14.0892477 2.087,13.045 C2.22906312,12.8105357 2.21319583,12.5130239 2.047,12.295 C1.58526843,11.6709567 1.36857293,10.8991791 1.438,10.126 C1.60839776,9.49459179 2.05278569,8.97277541 2.649,8.704 C2.82122128,8.60457548 2.9430265,8.43659336 2.984,8.242 C3.01735411,8.0463218 2.96367053,7.84583007 2.837,7.693 C2.11061046,6.8075169 2.0301334,5.55730583 2.637,4.586 C3.22708189,3.68005884 4.10322743,2.99751718 5.126,2.647 C6.13725715,2.30493959 7.22213652,2.24240355 8.266,2.466 C10.1432883,2.79212812 11.6842834,4.13356438 12.266,5.948 C11.1396027,6.47307584 10.0880489,7.14563985 9.139,7.948 L9.119,7.968 C9.059,8.022 8.992,8.075 8.932,8.129 C8.912,8.149 8.892,8.162 8.872,8.183 C8.852,8.204 8.812,8.237 8.778,8.263 C8.744,8.289 8.691,8.343 8.644,8.384 C8.5125052,8.50290186 8.4336678,8.66919744 8.42485223,8.84625906 C8.41603667,9.02332069 8.47796603,9.19662478 8.597,9.328 C8.64119642,9.37383849 8.69052086,9.41443887 8.744,9.449 C8.751,9.449 8.751,9.456 8.757,9.456 L8.797,9.476 C8.804,9.476 8.81,9.483 8.817,9.483 C8.82926097,9.49012001 8.84289584,9.49455134 8.857,9.496 C8.864,9.496 8.87,9.503 8.884,9.503 C8.898,9.503 8.911,9.51 8.917,9.516 C8.923,9.522 8.937,9.523 8.944,9.523 C8.951,9.523 8.964,9.53 8.977,9.53 C8.99,9.53 8.997,9.537 9.01,9.537 L9.166,9.537 C9.17744308,9.53787062 9.18889581,9.53544126 9.199,9.53 C9.206,9.53 9.219,9.523 9.226,9.523 C9.233,9.523 9.246,9.516 9.259,9.516 C9.272,9.516 9.272,9.509 9.286,9.509 C9.3,9.509 9.313,9.502 9.326,9.496 C9.339,9.49 9.339,9.489 9.346,9.489 L9.386,9.469 C9.393,9.469 9.393,9.462 9.399,9.462 C9.45195895,9.43489437 9.50133848,9.40130286 9.546,9.362 C9.62,9.295 9.693,9.235 9.767,9.168 C11.7803977,7.31233595 14.4006441,6.25335968 17.138,6.189 C19.8753559,6.25335968 22.4956023,7.31233595 24.509,9.168 C24.583,9.228 24.656,9.295 24.73,9.362 C24.8462825,9.46710303 24.995432,9.52860069 25.152,9.536 L25.219,9.536 C25.3972255,9.53057804 25.5649292,9.45035616 25.681,9.315 C25.800034,9.18362478 25.8619633,9.01032069 25.8531478,8.83325906 C25.8443322,8.65619744 25.7654948,8.48990186 25.634,8.371 C25.594,8.331 25.547,8.297 25.507,8.257 C25.467,8.217 25.44,8.197 25.407,8.17 C25.3875757,8.15604904 25.3694972,8.14031402 25.353,8.123 C25.286,8.069 25.226,8.009 25.159,7.956 C25.152,7.949 25.146,7.949 25.139,7.943 C24.1878201,7.14056394 23.1342749,6.46801678 22.006,5.943 C22.5855622,4.12714654 24.1276043,2.78479889 26.006,2.461 C27.0495887,2.23386715 28.1354221,2.29645818 29.146,2.642 C30.1706659,2.99227029 31.0500111,3.67288346 31.646,4.577 C32.2454267,5.55016985 32.16525,6.79571438 31.446,7.684 C31.3193295,7.83683007 31.2656459,8.0373218 31.299,8.233 C31.334876,8.42981276 31.4580849,8.59973074 31.634,8.695 C32.2304383,8.96219981 32.6753628,9.48311381 32.846,10.114 C32.9178471,10.889576 32.7009984,11.6643918 32.237,12.29 C32.0677112,12.5068767 32.0517395,12.8063473 32.197,13.04 C32.9502238,14.0931142 33.1371901,15.4493678 32.697,16.667 L32.697,16.667 Z" id="Shape"></path>
                <path d="M23.887,15.04 C22.5227615,15.0411029 21.4171029,16.1467615 21.416,17.511 C21.4065156,17.7563609 21.5320066,17.9872538 21.7430554,18.1127542 C21.9541041,18.2382546 22.2168959,18.2382546 22.4279446,18.1127542 C22.6389934,17.9872538 22.7644844,17.7563609 22.755,17.511 C22.7731904,16.8991837 23.2744133,16.4126415 23.8865,16.4126415 C24.4985867,16.4126415 24.9998096,16.8991837 25.018,17.511 C25.0085156,17.7563609 25.1340066,17.9872538 25.3450554,18.1127542 C25.5561041,18.2382546 25.8188959,18.2382546 26.0299446,18.1127542 C26.2409934,17.9872538 26.3664844,17.7563609 26.357,17.511 C26.355898,16.1471514 25.250848,15.041654 23.887,15.04 L23.887,15.04 Z M11.625,17.497 C11.6120106,17.7412904 11.7331985,17.973241 11.9411469,18.1020975 C12.1490953,18.2309539 12.4107434,18.2362299 12.6237173,18.115861 C12.8366912,17.9954922 12.9671309,17.7686155 12.964,17.524 C12.980945,16.165724 11.8983292,15.0484606 10.5401933,15.0226228 C9.18205735,14.996785 8.05772958,16.0720624 8.023,17.43 L8.023,17.524 C8.03008924,17.8887812 8.32815046,18.1806142 8.693,18.18 L8.706,18.18 C9.07519012,18.1712585 9.36814846,17.8662424 9.362,17.497 L9.362,17.45 C9.38787666,16.8347387 9.90083304,16.3530248 10.5165055,16.3658117 C11.1321779,16.3785985 11.6246912,16.8811949 11.625,17.497 L11.625,17.497 Z" id="Shape" fill-rule="nonzero"></path>
            </g>
            <path d="M22.36,23.516 C22.1037366,23.6179055 21.8395084,23.6985118 21.57,23.757 L21.557,23.757 C20.1920766,24.0633829 18.7694182,23.5923676 17.857,22.532 L17.857,22.512 C19.0376989,22.4449364 19.9900589,21.5211131 20.093,20.343 C20.1930695,19.5513547 20.1863427,18.7498542 20.073,17.96 C19.9833386,17.0169277 19.6282922,16.1185633 19.049,15.369 C18.5618605,14.7984115 17.8492507,14.4698111 17.099,14.4698111 C16.3487493,14.4698111 15.6361395,14.7984115 15.149,15.369 C14.5665263,16.1201785 14.2112028,17.0223671 14.125,17.969 C14.0094761,18.7585519 14.0003951,19.5600333 14.098,20.352 C14.1651295,21.0691479 14.5543496,21.7169896 15.156,22.113 C15.5672023,22.3580473 16.0304147,22.5026299 16.508,22.535 C15.5737743,23.6158597 14.1122575,24.081397 12.725,23.74 C12.707593,23.7343242 12.6892789,23.7319501 12.671,23.733 C12.4459356,23.6749332 12.2245412,23.6034726 12.008,23.519 C11.6658596,23.3809288 11.2765712,23.5463596 11.1385,23.8885 C11.0004288,24.2306404 11.1658596,24.6199288 11.508,24.758 C11.669,24.825 11.836,24.879 11.99,24.932 C12.1834778,25.5038225 12.4807864,26.0350456 12.867,26.499 C13.9844903,27.6502846 15.5205559,28.2999875 17.125,28.2999875 C18.7294441,28.2999875 20.2655097,27.6502846 21.383,26.499 C21.7615712,26.0472242 22.0543823,25.5300601 22.247,24.973 C22.441,24.913 22.647,24.846 22.847,24.765 C23.1888448,24.6263568 23.3535957,24.2368641 23.215,23.895 C23.1553782,23.7286551 23.0302172,23.5939949 22.8686702,23.5223852 C22.7071232,23.4507755 22.5232936,23.4484679 22.36,23.516 L22.36,23.516 Z" id="Path" fill-rule="nonzero"></path>
        </g>
    </g>
</svg>
